X:16
T:Reputation Square. ThoH.016
Q:3/8=100
M:9/8
L:1/8
B:Thompson's Compleat Collection of 120 Favourite Hornpipes.
Z:Village Music Project, Simon Wilson 2016
O:England.
K:G
G3{c}B2c dBG|(g/a/b)dc2Bc3|(f/g/a)cB2A (Bdg)|e2dc2B (AFD)|
G3B2c (dBG)|(g/a/b)dc2Bc2C|(f/g/a)cB2A (Bdg)|1(ecA) (dBF) G2G,:|2(ecA) (dBF)G3||
|:A3^c2d ecA|Bgfe2d^c3|(afd) (geA) (fdA)|(Bge) (ba^c)d2D|
d2b (dcB)c2A,|c2a (cBA)B2G,|(Bgf)e2dc2B|(ecA) (dBG) (AFD)|
(dgb) (dgB)c2A,|(cea) (cdA)B2G,|(Bgf)e2dc2B|1(ecA) (dBF)G2G,:|2(ecA) (dBF)G3|]

